X:1
T:Title
%%score { 1 | 2 }
L:1/8
M:3/2
K:G
V:1 treble nm="Grand Piano"
V:2 bass 
V:1
 z4 z2[Q:1/4=112] D2 B2 A2 | G6 B2 c2 B2 | [DFA]8 [DGd]4 | [EGd]6 [EGc]2 [DGB]2 [CFA]2 | %4
[M:7/8] [B,EG]2 [DFA]2 B3 |[M:3/4] D2 B2 A2 |[M:6/4] G6 [=FB]2 [Ec]2 [DB]2 | [DA]6- [DA]2 [Dd]4 | %8
 [Ed]6 [Ec]2 [GB]2 [FA]2 |[M:4/4] G8 |[M:2/4] B4 |[M:6/4] B6 B2 [FB]2 [=FB]2 | %12
 [Ec]6- [Ec]2 [DFA]4 | [DA]6 [DFA]2 [^CGA]2 [DFA]2 |[M:3/4] B6 | D2 B2 A2 | %16
[M:6/4] G6 [=FB]2 [Ec]2 [DB]2 | [DA]6- [DA]2 [Dd]4 | [Ed]6 [Ec]2 [GB]2 [FA]2 |[M:8/4] G8 z8 |] %20
V:2
 z4 z2 [G,B,]2 [G,D]2 [D,F,C]2 | [G,B,]6[K:treble] [G,D=F]2 [G,CE]2 [G,DG]2 | D,8 B,,4 | %3
 C,6 C,2 D,2 D,2 |[M:7/8] E,2 D,2[K:treble] [G,DG]3 |[M:3/4] [G,B,]2[K:bass] [G,D]2 [D,F,C]2 | %6
[M:6/4] [E,G,B,]6 [D,G,]2 [C,G,]2 [G,,G,]2 | [D,F,]6- [D,F,]2 [B,,G,]4 | %8
 [C,G,]6 [C,G,]2 [D,D]2 [D,C]2 |[M:4/4] [G,B,]8 |[M:2/4][K:treble] [G,DG]4 | %11
[M:6/4] [G,DG]6[K:bass] [F,A,^D]2 [E,G,]2 [D,G,]2 | [C,G,]6- [C,G,]2 D,4 | F,6 D,2 E,2 D,2 | %14
[M:3/4][K:treble] [G,DG]6 | [G,B,]2[K:bass] [G,D]2 [D,F,C]2 | %16
[M:6/4] [E,G,B,]6 [D,G,]2 [C,G,]2 [G,,G,]2 | [D,F,]6- [D,F,]2 [B,,G,]4 | %18
 [C,G,]6 [C,G,]2 [D,D]2 [D,C]2 |[M:8/4] [G,B,]8 z8 |] %20

